tnt-russia-btg-map/map/images/RU_Mechanized_Infantry_Army.svg

<svg width="50" height="50" viewBox="0 0 50 50" fill="none" xmlns="http://www.w3.org/2000/svg">
<path d="M19.5156 13.5269L35.6587 29.6699L19.5156 45.813L3.37253 29.6699L19.5156 13.5269Z" fill="#E8777B" stroke="#232323"/>
<path d="M19.5209 34.4901C24.9389 34.4901 29.3309 32.3321 29.3309 29.6701C29.3309 27.0081 24.9389 24.8501 19.5209 24.8501C14.103 24.8501 9.71094 27.0081 9.71094 29.6701C9.71094 32.3321 14.103 34.4901 19.5209 34.4901Z" stroke="#232323" stroke-miterlimit="10"/>
<path d="M11.4531 37.7501L27.5931 21.6001" stroke="#232323"/>
<path d="M11.4531 21.6001L27.5931 37.7501" stroke="#232323"/>
<path d="M10.0991 8.18001L8.39906 5.01001H10.0391L10.6091 6.24001C10.7591 6.54001 10.8991 6.88001 11.0791 7.29001H11.1191C11.2691 6.88001 11.4091 6.54001 11.5391 6.24001L12.0591 5.01001H13.6291L11.9391 8.25001L13.7391 11.53H12.0991L11.4491 10.2C11.2891 9.86001 11.1391 9.53001 10.9591 9.13001H10.9191C10.7691 9.53001 10.6191 9.86001 10.4791 10.2L9.86906 11.53H8.28906L10.0991 8.18001Z" fill="#232323"/>
<path d="M15.7709 8.18001L14.0709 5.01001H15.7109L16.2809 6.24001C16.4309 6.54001 16.5709 6.88001 16.7509 7.29001H16.7909C16.9409 6.88001 17.0809 6.54001 17.2109 6.24001L17.7309 5.01001H19.3009L17.6109 8.25001L19.4109 11.53H17.7709L17.1209 10.2C16.9609 9.86001 16.8109 9.53001 16.6309 9.13001H16.5909C16.4409 9.53001 16.2909 9.86001 16.1509 10.2L15.5409 11.53H13.9609L15.7709 8.18001Z" fill="#232323"/>
<path d="M21.4428 8.18001L19.7428 5.01001H21.3828L21.9528 6.24001C22.1028 6.54001 22.2428 6.88001 22.4228 7.29001H22.4628C22.6128 6.88001 22.7528 6.54001 22.8828 6.24001L23.4028 5.01001H24.9728L23.2828 8.25001L25.0828 11.53H23.4428L22.7928 10.2C22.6328 9.86001 22.4828 9.53001 22.3028 9.13001H22.2628C22.1128 9.53001 21.9628 9.86001 21.8228 10.2L21.2128 11.53H19.6328L21.4428 8.18001Z" fill="#232323"/>
<path d="M27.1069 8.18001L25.4069 5.01001H27.0469L27.6169 6.24001C27.7669 6.54001 27.9069 6.88001 28.0869 7.29001H28.1269C28.2769 6.88001 28.4169 6.54001 28.5469 6.24001L29.0669 5.01001H30.6369L28.9469 8.25001L30.7469 11.53H29.1069L28.4569 10.2C28.2969 9.86001 28.1469 9.53001 27.9669 9.13001H27.9269C27.7769 9.53001 27.6269 9.86001 27.4869 10.2L26.8769 11.53H25.2969L27.1069 8.18001Z" fill="#232323"/>
</svg>

<svg enable-background="new 0 0 50 50" viewBox="0 0 50 50" xmlns="http://www.w3.org/2000/svg"><path d="m8.1 18.26h22.83v22.83h-22.83z" fill="#e8777b" stroke="#232323" transform="matrix(.7071 .7071 -.7071 .7071 26.6994 -5.1122)"/><ellipse cx="19.52" cy="29.67" fill="none" rx="9.81" ry="4.82" stroke="#232323" stroke-miterlimit="10"/><path d="m11.45 37.75 16.14-16.15" fill="none" stroke="#232323"/><path d="m11.45 21.6 16.14 16.15" fill="none" stroke="#232323"/><g fill="#232323"><path d="m10.1 8.18-1.7-3.17h1.64l.57 1.23c.15.3.29.64.47 1.05h.04c.15-.41.29-.75.42-1.05l.52-1.23h1.57l-1.69 3.24 1.8 3.28h-1.64l-.65-1.33c-.16-.34-.31-.67-.49-1.07h-.04c-.15.4-.3.73-.44 1.07l-.61 1.33h-1.58z"/><path d="m15.77 8.18-1.7-3.17h1.64l.57 1.23c.15.3.29.64.47 1.05h.04c.15-.41.29-.75.42-1.05l.52-1.23h1.57l-1.69 3.24 1.8 3.28h-1.64l-.65-1.33c-.16-.34-.31-.67-.49-1.07h-.04c-.15.4-.3.73-.44 1.07l-.61 1.33h-1.58z"/><path d="m21.44 8.18-1.7-3.17h1.64l.57 1.23c.15.3.29.64.47 1.05h.04c.15-.41.29-.75.42-1.05l.52-1.23h1.57l-1.69 3.24 1.8 3.28h-1.64l-.65-1.33c-.16-.34-.31-.67-.49-1.07h-.04c-.15.4-.3.73-.44 1.07l-.61 1.33h-1.58z"/><path d="m27.11 8.18-1.7-3.17h1.64l.57 1.23c.15.3.29.64.47 1.05h.04c.15-.41.29-.75.42-1.05l.52-1.23h1.57l-1.69 3.24 1.8 3.28h-1.64l-.65-1.33c-.16-.34-.31-.67-.49-1.07h-.04c-.15.4-.3.73-.44 1.07l-.61 1.33h-1.58z"/><path d="m36.39 8.75c0-1.76.48-3.2 1.32-4.57l.92.38c-.73 1.3-1.05 2.77-1.05 4.19s.32 2.89 1.05 4.19l-.92.38c-.84-1.37-1.32-2.81-1.32-4.57z"/><path d="m39.54 8.53h3.94v.94h-3.94z"/><path d="m44.39 12.94c.74-1.3 1.06-2.77 1.06-4.19s-.32-2.89-1.06-4.19l.92-.38c.84 1.37 1.32 2.81 1.32 4.57s-.48 3.2-1.32 4.57z"/></g></svg>
